rospo-light/16x16/actions/edit-clone-unlink.svg

<svg height="16" viewBox="0 0 16 16" width="16" xmlns="http://www.w3.org/2000/svg"><path d="m2 2v8h4v4h8v-8h-4v-4zm8 5c .739 0 1.333984.6834375 1.333984 1.5234375v1.4765625h.332032c.185 0 .333984.167.333984.375v2.25c0 .208-.148984.375-.333984.375h-3.3320316c-.1847 0-.3339844-.167-.3339844-.375v-2.25c0-.208.1492844-.375.3339844-.375h2.3320316v-1.5c0-.4155-.297016-.75-.666016-.75-.3693 0-.6660156.3345-.6660156.75v.375h-.6679688v-.375c.0112-.8294.6022844-1.5 1.3339844-1.5z" fill="#5c616c"/></svg>

<?xml version="1.0" encoding="UTF-8" standalone="no"?>
<svg xmlns="http://www.w3.org/2000/svg" width="22" height="22" viewBox="0 0 22 22">
 <defs>
  <style type="text/css" id="current-color-scheme">
   .ColorScheme-Text { color:#5c616c; } .ColorScheme-Highlight { color:#5294e2; }
  </style>
 </defs>
 <path style="fill:currentColor;opacity:1" class="ColorScheme-Text" transform="translate(3 3)" d="M 2 2 L 2 10 L 6 10 L 6 14 L 14 14 L 14 6 L 10 6 L 10 2 L 2 2 z M 10 7 C 10.739 7 11.333984 7.6834375 11.333984 8.5234375 L 11.333984 10 L 11.666016 10 C 11.851016 10 12 10.167 12 10.375 L 12 12.625 C 12 12.833 11.851016 13 11.666016 13 L 8.3339844 13 C 8.1492844 13 8 12.833 8 12.625 L 8 10.375 C 8 10.167 8.1492844 10 8.3339844 10 L 10.666016 10 L 10.666016 8.5 C 10.666016 8.0845 10.369 7.75 10 7.75 C 9.6307 7.75 9.3339844 8.0845 9.3339844 8.5 L 9.3339844 8.875 L 8.6660156 8.875 L 8.6660156 8.5 C 8.6772156 7.6706 9.2683 7 10 7 z"/>
</svg>
